X: 146128
M: C
L: 1/8
K: Bb
(BA) |\
c2C2 C2(cB) | Acf2 f2ga |\
bagf gfed | edcB BAGF |\
(FE) |\
=EGcG EGcG | A2F2 F2(ed) |\
e2g2 gfed | edcB BAGF |\


